!!!!SEGMENT: pl-kk--kk-i-40--002-001_monte-philippe-de--missa-kyrie.krn
!!!cenid: 16xx:1281
!!!COM: Monte, Philippe de
!!!COM-rismid: pe30005218
!!!CDT: 1521-1603/07/04
!!!CNT: Flemish
!!!OTL: Missa – Kyrie
!!!PDT:
!!!AGN: Sacred; Mass
!!!SMS-siglum: PL-Kk
!!!SMS-shelfmark: Kk.I.40
!!!SMS-shelfwork: 002-001 M
!!!SMS-variant:
!!!SMS-altvar:
!!!NIFC-rismid: 1001154488
!!!URL-scan: http://repozytorium.nifc.pl/skany/pl-kk-nut--i-40
!!!ONB-nifc: UWAGA: części Mszy: 1. Kyrie, 2. Et in terra, 3. Sanctus, 4. Agnus Dei. Skan 0005
**kern	**text
*I"Baſso Ripieno.	*
*I'B rip	*
*clefF3	*
*k[b-]	*
*M2/1	*
*met(C|)	*
=1-	=1-
!LO:TX:t=P:problem:przy kluczu BB- B-	!
00r	.
=2-	=2-
.	.
=3-	=3-
2r	.
1d	Ky-
!LO:TX:t=P:problem:kreska pseudotaktowa	!
2D/	-ri-
=4-	=4-
*2\right	*
2G\	-e
2G\	e-
2.E-X/	-lei-
!LO:TX:t=P:problem:kreska pseudotaktowa	!
4D/	.
=5-	=5-
1C	.
4BB-/	.
4C/	.
4D/	.
!LO:TX:t=P:problem:kreska pseudotaktowa	!
4Eny/	.
=6-	=6-
4F/	.
4D/	.
2E-X/	.
!LO:TX:t=P:problem:kreska pseudotaktowa	!
1D,<	-son
=7-	=7-
2r	.
*	*ij
1d	Ky-
!LO:TX:t=P:problem:kreska pseudotaktowa	!
2D/	-ri-
=8-	=8-
2F\	-e
2G\	e-
*lig	*
1D	-lei-
=9-	=9-
1G	.
*Xlig	*
!LO:TX:t=P:problem:kreska pseudotaktowa	!
1D	son
*	*Xij
=10-	=10-
2r	.
1d	Ky-
!LO:TX:t=P:problem:kreska pseudotaktowa	!
2D/	-ri-
=11-	=11-
2F\	-e
2G\	.
1D	e-
=12-	=12-
0G	-lei-
=13-	=13-
0Dl;	-son
=14||	=14||
*M2/1	*
*met(C|)	*
00r	.
=15-	=15-
.	.
=16-	=16-
00r	.
=17-	=17-
.	.
=18-	=18-
!LO:TX:t=P:problem:kreska pseudotaktowa	!
1r	.
!LO:TX:a:t=3.	!
!LO:TX:t=P:problem:kreska pseudotaktowa	!
0.D	Chri-
=19-	=19-
.	.
=20-	=20-
1.E-X	-ste
!LO:TX:t=P:problem:kreska pseudotaktowa	!
2D/	.
!LO:LB:g=original	!
=21-	=21-
2C/	e-
1G	-lei-
2F\	.
=22-	=22-
1E-X	.
!LO:TX:t=P:problem:kreska pseudotaktowa	!
1D	-son
=23-	=23-
00r	.
=24-	=24-
.	.
=25-	=25-
00r	.
=26-	=26-
.	.
=27-	=27-
!LO:TX:t=P:problem:kreska pseudotaktowa	!
1r	.
1G	Chri-
=28-	=28-
1.B-	-ste
!LO:TX:t=P:problem:kreska pseudotaktowa	!
2A\	.
=29-	=29-
2G\	.
2F\	e-
1B-	-lei-
=30-	=30-
!LO:TX:t=P:problem:kreska pseudotaktowa	!
1A,<	-son
2r	.
1d\	X-
=31-	=31-
.	.
!LO:TX:t=P:problem:kreska pseudotaktowa	!
2A\	-te
2B-\	.
!LO:TX:t=P:problem:kreska pseudotaktowa	!
2c\	.
=32-	=32-
2d\	e-
2A\	.
!LO:TX:t=P:problem:kreska pseudotaktowa	!
1D	.
=33-	=33-
1A	.
1.B-	-lei-
=34-	=34-
.	.
2A\	.
2G\	.
2F#X\	.
=35-	=35-
*lig	*
1G	.
1D	.
*Xlig	*
=36-	=36-
0Gl;	-son
=37||	=37||
*M2/1	*
*met(C|)	*
0r	.
=38-	=38-
!LO:TX:t=P:problem:kreska pseudotaktowa	!
1r	.
2r	.
1D/	Ky-
=39-	=39-
.	.
2D/	-ri-
2B-\	.
!LO:TX:t=P:problem:kreska pseudotaktowa	!
2B-\	-e
!LO:LB:g=original	!
=40-	=40-
2A\	e-
4G\	.
4F\	.
!LO:TX:t=P:problem:kreska pseudotaktowa	!
1G	-lei-
=41-	=41-
4D,</	-son
*	*ij
2G\	Ky-
!LO:TX:t=P:problem:kreska pseudotaktowa	!
4F\	-ri-
2G\	-e
2D/	e-
=42-	=42-
2G\	-lei-
!LO:TX:t=P:problem:kreska pseudotaktowa	!
2A,<\	-son
*	*Xij
00r	.
=43-	=43-
.	.
=44-	=44-
.	.
!LO:TX:t=P:problem:kreska pseudotaktowa	!
1r	.
=45-	=45-
2r	.
1d	Ky-
!LO:TX:t=P:problem:kreska pseudotaktowa	!
2c\	-ri-
=46-	=46-
2Bn\	-e
2c\	.
2G\	e-
!LO:TX:t=P:problem:kreska pseudotaktowa	!
2C/	.
=47-	=47-
*lig	*
1F	-lei-
1G	.
*Xlig	*
=48-	=48-
2C,</	-son
*	*ij
2c\	Ky-
2Bn\	-ri-
!LO:TX:t=P:problem:kreska pseudotaktowa	!
2c\	-e
=49-	=49-
2G\	e-
2C/	.
0G	-lei-
=50-	=50-
.	.
2F,</	-son
*	*Xij
2C/	Ky-
=51-	=51-
2F\	-rie-
!LO:TX:t=P:problem:kreska pseudotaktowa	!
2G\	.
1D	-lei-
=52-	=52-
0Gl;	-son.
==	==
*-	*-
!!!RDF**kern: < = below
!!!RDF**kern: l = terminal long
!!!ENC: Andrzej Kubiczek
!!!END: 2021-08-01
!!!ENC: Berenika Jozajtis
!!!END: 2021-07-04
